X: 20710
T: Johnny Boyle's
R: jig
M: 6/8
K: Dmixolydian
g2f|:edc ABc|GBc ABc|ed^c AB(^c|d3) d2 g|
edc ABc|GBc AB(c|d)^cd e^cA|1 uG3 g2f:|2 uG3 G2 g||
ede ({a}gfg)|aba g2(f|e)de gfe|.d/.d/.de fd(f|
e)de ({a}gfg)|aba {ga}g2e|ud^cd e^cA|1 uG3 G2 g:|2 uG3 g2f||

